X:1
T:Title
%%score 1 2 3
L:1/8
M:3/2
K:C
V:1 treble nm="Part_1"
V:2 bass nm="Part_2"
V:3 bass nm="Part_3"
V:1
 z4 d6 ^cB | ^c2 d4 c2 d/A/B/c/ d2 |[M:2/2] B/G/A/B/ c2 A/c/B/A/ G2- |[M:3/2] G2 ^FG A3 G G4 | %4
w: O Pre- ti-|o- * * sum et ad- mi- ran-|dum et ad- mi- ran- dum et ad- mi- ran-|* dum con- vi- vi- um|
[M:6/2] z12 z12 | z12 d8 B4 | ^c8 d4 B4 G4 A4 | G8 z4 B8 c4 | A8 G4 ^F4 G6 F2 |[M:4/2] G4 z4 z8 | %10
w: |Al- le-|lu- ia Al- le- lu-|ia AL- le-|u- ia Al- le- lu-|ia|
 z8 d6 B2 | ^G3 G A2 B2 B4 ^c2 d2 |[M:3/2] d2 B2 A2 GG ^F G2 F |[M:4/8] G4 |[M:6/2] z12 z12 | %15
w: sa- lu-|ti- fe- rum et om- ni su-|a- vi- ta- te re- ple- * *|tum||
 d4 B4 c4 d2 c2 B2 A2 G4 | A4 d4 B4 c8 z4 |[M:9/2] z12 G2 A2 B2 c2 d4 B4 A8 | %18
w: * Lle- lu- ia * * * *|* Lle- lu- ia|Al- * * * * le- lu-|
[M:4/2] G4 B4 z2 ^G4 z G/G/ |[M:3/2] A2 A2 AB c2 B4 |[M:4/2] d6 c2 B4 A2 z A | %21
w: ia O O pi- e-|ta- tis Sa- cra- men- tum|Sa- cra- men- tum et|
[M:2/2] d>cBB e>d c2 |[M:3/2] AA B/c/d/B/ ^c d2 c d2 =c2- | c2 B2 A4 G4 |[M:6/2] z12 z12 | %25
w: vin- cu- lum et vin- cu- lum|cha- ri- ta- * * * * * * tis cha-|* ri- ta- tis||
 z12 z12 | G4 A4 B4 c6 d2 e2 c2 | d4 c4 B4 A2 G2 F2 E2 D4 |[M:3/2] G6 G2 ^F4 | %29
w: |I- le- lu- ia * * *|I- le- lu- ia * * * *|Al- le- lu-|
[M:2/2] G/G/A/B/ c2 z/ A/B/c/ d2 | z/ B/c/d/ e2 z/ e/d/c/ d2 | z/ d/c/B/ c2 z/ c/B/A/ B2 | %32
w: ia Al- lr- lu- ia Al- le- lu- ia|Al- le- lu- ia Al- le- lu- ia|Al- le- lu- ia Al- le- lu- ia|
 z/ B/A/G/ A2 z G>AA |[M:4/2] G2 G3 G A2 B8 |] %34
w: Al- le- lu- ia Al- le- lu-|ia Al- le- lu ia.|
V:2
 G,6 ^F,E, F,2 G,2 | A,4 A,,4 D,2 z/ D,/E,/^F,/ |[M:2/2] G,2 E,/C,/D,/E,/ F,2 C,/C,/B,,/A,,/ | %3
w: O Pre- ti- o- *|* * sum et ad- mi-|ran- dum et ad- mi- ran- dum et ad- mi-|
[M:3/2] G,,2 D,B,, C,2 D,2 G,,4 |[M:6/2] G,8 E,4 ^F,8 G,4 | E,4 C,4 D,4 G,,12 | z12 z12 | %7
w: ran- dum con- vi- vi- um|Al- le- lu- ia|Al- le- lu- ia||
 z12 G,8 E,4 | F,8 C,4 D,4 B,,4 A,,4 |[M:4/2] G,,4 G,6 E,2 ^C,3 C, | D,2 E,2 E,4 ^F,2 G,2 G,2 G,2 | %11
w: Al- le-|lu- ia Al- le- lu-|ia Sa- lu- ti- fe-|rum et om- ni su- a- vi-|
 E,4 D,2 B,,2 E,4 A,,2 D,2 |[M:3/2] D,2 G,,2 A,,2 B,,C, D,4 |[M:4/8] G,,4 | %14
w: ta- te re- ple- tum su-|a- vi- ta- te re- ple-|tum|
[M:6/2] G,4 E,4 F,4 G,2 F,2 E,2 D,2 C,4 | D,4 G,4 C,4 G,12 | z12 C,2 D,2 E,2 F,2 G,4 | %17
w: Al- le- lu- ia * * * *|Al- le- lu- ia|Al- * * * *|
[M:9/2] E,4 D,8 G,,8 G,4 G,4 D,8 |[M:4/2] G,,4 G,4 z2 E,4 z E,/E,/ | %19
w: le- lu- ia Al- le- lu-|ia O O pi- e-|
[M:3/2] ^C,2 D,2 D,B,, A,,2 G,,4 |[M:4/2] G,2 F,2 E,8 A,,A,,D,>C, |[M:2/2] B,,B,,E,>D, C,2 C,C, | %22
w: ta- tis sa- cra- men- tum|sa- cra- men- tum et vin- cu-|lum et vin- cu- lum cha- ri-|
[M:3/2] D,2 G,,2 z4 D,2 A,,2 | D,8 G,,4 |[M:6/2] C,4 D,4 E,4 F,6 G,2 A,2 F,2 | %25
w: ta- tis cha- ri-|ta- tis|Al- le- lu- ia * * *|
 G,4 F,4 E,4 D,2 C,2 B,,2 A,,2 G,,4 | C,4 F,4 G,4 C,12 | G,4 A,4 G,4 D,12 |[M:3/2] B,,6 C,2 D,4 | %29
w: Al- le- lu- ia * * * *|Al- le- lu- ia|Al- le- lu- ia|Al- le- lu-|
[M:2/2] G,,2 z/ C,/D,/E,/ F,2 z/ D,/E,/F,/ | G,2 z/ E,/F,/G,/ A,2 z/ A,/G,/F,/ | %31
w: ia Al- le- lu- ia Al- le- lu-|ia Al- le- lu- ia Al- le- lu-|
 G,2 z/ G,/F,/E,/ F,2 z/ F,/E,/D,/ | E,2 z/ E,/D,/C,/ D,B,,>C,D, |[M:4/2] G,,2 C,3 B,, D,2 G,,8 |] %34
w: ia Al- le- lu- ia Al- le- lu-|ia Al- le- lu- ia Al- le- lu-|ia Al- le- lu- ia|
V:3
 G,6 ^F,E, F,2 G,2 | A,4 A,,4 D,2 z/ D,/E,/^F,/ |[M:2/2] G,2 E,/C,/D,/E,/ F,2 C,/C,/B,,/A,,/ | %3
[M:3/2] G,,2 D,B,, C,2 D,2 G,,4 |[M:6/2] G,8 E,4 ^F,8 G,4 | E,4 C,4 D,4 G,,8 G,4 | %6
 E,8 D,4 G,4 G,4 D,4 | G,,8 z4 G,8 E,4 | F,8 C,4 D,4 B,,4 A,,4 |[M:4/2] G,,4 G,6 E,2 ^C,3 C, | %10
 D,2 E,2 E,4 ^F,2 G,2 G,2 G,2 | E,4 D,2 B,,2 E,4 A,,2 D,2 |[M:3/2] D,2 G,,2 A,,2 B,,C, D,4 | %13
[M:4/8] G,,4 |[M:6/2] G,4 E,4 F,4 G,2 F,2 E,2 D,2 C,4 | D,4 G,4 C,4 G,,12 | %16
 D,4 D,4 G,4 C,2 D,2 E,2 F,2 G,4 |[M:9/2] E,4 D,8 G,,8 G,4 G,4 D,8 | %18
[M:4/2] G,,4 G,4 z2 E,4 z E,/E,/ |[M:3/2] ^C,2 D,2 D,B,, A,,2 G,,4 | %20
[M:4/2] G,2 F,2 E,8 A,,A,,D,>C, |[M:2/2] B,,B,,E,>D, C,2 C,C, |[M:3/2] D,2 G,,2 A,,4 D,2 A,,2 | %23
 D,8 G,,4 |[M:6/2] C,4 D,4 E,4 F,6 G,2 A,2 F,2 | G,4 F,4 E,4 D,2 C,2 B,,2 A,,2 G,,4 | %26
 C,4 F,4 G,4 C,12 | G,4 A,4 G,4 D,12 |[M:3/2] B,,6 C,2 D,4 | %29
[M:2/2] G,,2 C,/C,/D,/E,/ F,2 D,/D,/E,/F,/ | G,2 E,/E,/F,/G,/ A,2- A,/A,/G,/F,/ | %31
 G,2- G,/G,/F,/E,/ F,2- F,/F,/E,/D,/ | E,2- E,/E,/D,/C,/ D,B,,>C,D, | %33
[M:4/2] G,,2 C,3 B,, D,2 G,,8 |] %34

